icons/production/google-plus.svg

<?xml version="1.0" encoding="UTF-8" standalone="no"?>
<svg width="24px" height="24px" viewBox="0 0 24 24" version="1.1" xmlns="http://www.w3.org/2000/svg">
<!--Generator: Sketch 3.8.3 (29802) - http://www.bohemiancoding.com/sketch-->
    <title>
        google-plus
    </title>
    <desc>
        Created with Sketch.
    </desc>
    <g id="Page-1" stroke="none" stroke-width="1" fill="none" fill-rule="evenodd">
        <path d="M22,11 L20,11 L20,9 L18,9 L18,11 L16,11 L16,13 L18,13 L18,15 L20,15 L20,13 L22,13 L22,11 L22,11 Z M8.13138686,11.1428571 L8.13138686,13.2 L11.6350365,13.2 C11.459854,14.0571429 10.5839416,15.7714286 8.13138686,15.7714286 C6.02919708,15.7714286 4.3649635,14.0571429 4.3649635,12 C4.3649635,9.94285714 6.02919708,8.22857143 8.13138686,8.22857143 C9.35766423,8.22857143 10.1459854,8.74285714 10.5839416,9.17142857 L12.2481752,7.62857143 C11.1970803,6.6 9.79562044,6 8.13138686,6 C4.71532847,6 2,8.65714286 2,12 C2,15.3428571 4.71532847,18 8.13138686,18 C11.6350365,18 14,15.6 14,12.1714286 C14,11.7428571 14,11.4857143 13.9124088,11.1428571 L8.13138686,11.1428571 L8.13138686,11.1428571 L8.13138686,11.1428571 Z" id="google-plus" fill="#000"/>
    </g>
</svg>

<svg xmlns="http://www.w3.org/2000/svg" viewBox="0 0 24 24">
    <path fill-rule="evenodd" d="M22 11h-2V9h-2v2h-2v2h2v2h2v-2h2v-2zm-13.869.143V13.2h3.504c-.175.857-1.051 2.571-3.504 2.571A3.771 3.771 0 0 1 4.365 12a3.771 3.771 0 0 1 3.766-3.771c1.227 0 2.015.514 2.453.942l1.664-1.542C11.198 6.6 9.796 6 8.131 6 4.715 6 2 8.657 2 12s2.715 6 6.131 6C11.635 18 14 15.6 14 12.171c0-.428 0-.685-.088-1.028h-5.78z"/>
</svg>
